X: 11
T: Jig Of Slurs, The
C: G.S. MacLennan
Z: UPipes & harp
S: https://thesession.org/tunes/35#setting50470
R: jig
M: 6/8
L: 1/8
K: Dmaj
|:Add cdd|Bdd Add|Bdd Add|Bee edB|
Add cdd|Bdd Add|Bdd cde|1 fdc dcB:|2 fdc d2 e||
|:f3 fef|a2f fed|Bee ede|f3 edB|
Aff fef|aff fed|Add cde|1 fdc d2 e:|2 fdc d2 B||
|:G2g gfg|agf gdB|G2g gfg|agf g2 d|
G2g gfg|agf gdB|e3 efg|fed edB:|
|:GBB Bdd|dee edB|GBB Bdd|dee e2 B|
GBB Bdd|dee edB|e3 efg|1 fed edB:|2 fed e3||

